dist/img/sprites/icon_choice.svg

<svg width="46" height="46" viewBox="0 0 46 46" fill="none" xmlns="http://www.w3.org/2000/svg">
<g clip-path="url(#clip0_4_2)">
<path d="M46.0807 23.0003C46.0808 22.8714 46.0439 22.7451 45.9743 22.6366C45.9048 22.528 45.8055 22.4417 45.6883 22.3879L33.8992 16.9685L45.6883 11.5491C46.199 11.3144 46.1993 10.5594 45.6883 10.3246L23.3621 0.0614388C23.2714 0.0198052 23.1725 -0.00116218 23.0727 4.96931e-05C22.9728 0.00126156 22.8745 0.0246225 22.7848 0.0684466L20.763 1.05673C19.9839 1.43749 20.5703 2.65038 21.3551 2.26746L23.0895 1.41961L26.8962 3.1694L23.055 4.93546L18.1056 2.66691C17.8582 2.55352 17.6342 2.45353 17.3641 2.57706L0.473444 10.3246C-0.0375869 10.5591 -0.0383056 11.3144 0.473085 11.5491L12.2622 16.9689L9.9516 18.0308C9.16331 18.3931 9.72169 19.62 10.5145 19.2554L13.8387 17.7272C13.8506 17.722 13.8619 17.7154 13.8731 17.7094L22.7993 21.8123C22.8876 21.8527 22.9836 21.8737 23.0807 21.8737C23.1778 21.8737 23.2738 21.8527 23.3621 21.8123L32.2858 17.7104L43.7935 23.0003L23.0806 32.5216L2.36753 23.0003L6.89898 20.917C7.68718 20.555 7.12952 19.3276 6.33638 19.6926L0.472726 22.3879C-0.0375869 22.6227 -0.0383056 23.3776 0.472726 23.6124L12.2622 29.0318L0.472726 34.4512C-0.0375869 34.686 -0.0383056 35.4409 0.472726 35.6757L22.7993 45.9389C22.8876 45.9791 22.9836 45.9999 23.0807 45.9999C23.1778 45.9999 23.2738 45.9791 23.3621 45.9389L27.2254 44.1627C28.0133 43.8006 27.456 42.5733 26.6625 42.9383L23.0806 44.5849L2.36753 35.0636L13.8756 29.7734L22.7993 33.8757C22.8876 33.9159 22.9836 33.9367 23.0807 33.9367C23.1778 33.9367 23.2738 33.9159 23.3621 33.8757L32.3262 29.7548C32.3782 29.8033 32.4377 29.8432 32.5023 29.873L43.7935 35.0633L31.0649 40.9146C30.2766 41.2773 30.835 42.5038 31.6278 42.1392L45.6883 35.6757C46.199 35.4409 46.1993 34.686 45.6883 34.4512L33.8991 29.0318L45.6884 23.6124C45.8055 23.5587 45.9047 23.4724 45.9743 23.3639C46.0438 23.2554 46.0807 23.1292 46.0807 23.0003ZM28.5095 17.9628L24.694 16.2087L28.8875 14.2809L32.6894 16.0413L28.5095 17.9628ZM13.4762 16.0434L17.2921 14.2894L21.4673 16.2087L17.6515 17.9628L13.4762 16.0434ZM7.79634 13.4327L11.6123 11.6786L15.6788 13.5478L11.8628 15.3018L7.79634 13.4327ZM12.0636 6.49084L15.8535 8.24558L11.6123 10.1955L7.8038 8.44458L12.0636 6.49084ZM17.4609 8.98993L21.5126 10.8661L17.2921 12.8062L13.2256 10.937L17.4609 8.98993ZM38.3647 8.44143L34.5407 10.1993L30.3591 8.28277L34.1894 6.5221L38.3647 8.44143ZM32.9255 10.9416L28.8897 12.7968L24.7295 10.8704L28.744 9.02506L32.9255 10.9416ZM34.2989 15.3015L30.4973 13.5411L34.5414 11.6821L38.3625 13.4334L34.2989 15.3015ZM23.1221 10.126L19.0704 8.25016L23.0559 6.41788L27.1282 8.28457L23.1221 10.126ZM18.9054 13.5478L23.12 11.6102L27.2802 13.5366L23.0806 15.4671L18.9054 13.5478ZM39.9776 12.6911L36.1561 10.9399L39.978 9.18301L43.7935 10.937L39.9776 12.6911ZM28.5095 3.91088L32.5761 5.78044L28.7433 7.54228L24.6709 5.67551L28.5095 3.91088ZM17.463 7.5058L13.6748 5.75178L17.6371 3.93451L21.44 5.67766L17.463 7.5058ZM6.18903 9.18543L9.99895 10.937L6.18301 12.6911L2.36888 10.9377L6.18903 9.18543ZM23.0806 20.4584L19.2648 18.7043L23.0806 16.9503L26.8963 18.7043L23.0806 20.4584Z" fill="white"/>
</g>
<defs>
<clipPath id="clip0_4_2">
<rect width="46" height="46" fill="white"/>
</clipPath>
</defs>
</svg>

<svg width="46" height="46" viewBox="0 0 46 46" fill="none" xmlns="http://www.w3.org/2000/svg"><g clip-path="url(#clip0_4_2)"><path d="M46.08 23a.673.673 0 00-.392-.612L33.9 16.968l11.79-5.419c.51-.235.51-.99 0-1.224L23.361.06a.674.674 0 00-.577.007l-2.022.989c-.78.38-.193 1.593.592 1.21l1.735-.847 3.806 1.75-3.841 1.765-4.95-2.268c-.247-.113-.47-.213-.74-.09L.472 10.325c-.51.234-.511.99 0 1.224l11.79 5.42-2.311 1.062c-.789.362-.23 1.589.563 1.224l3.324-1.528c.012-.005.023-.012.034-.018l8.926 4.103a.677.677 0 00.563 0l8.924-4.102L43.794 23 23.08 32.522 2.368 23l4.531-2.083c.788-.362.23-1.59-.563-1.224L.473 22.388c-.51.235-.511.99 0 1.224l11.79 5.42-11.79 5.42c-.51.234-.511.989 0 1.224l22.326 10.263a.68.68 0 00.563 0l3.863-1.776c.788-.362.231-1.59-.563-1.225l-3.581 1.647-20.713-9.521 11.508-5.29 8.923 4.102a.68.68 0 00.563 0l8.964-4.121a.67.67 0 00.176.118l11.291 5.19-12.728 5.852c-.788.362-.23 1.589.563 1.224l14.06-6.463c.511-.235.511-.99 0-1.225L33.9 29.031l11.79-5.419a.673.673 0 00.39-.612zm-17.57-5.037l-3.816-1.754 4.194-1.928 3.801 1.76-4.18 1.922zm-15.034-1.92l3.816-1.754 4.175 1.92-3.816 1.754-4.175-1.92zm-5.68-2.61l3.816-1.754 4.067 1.869-3.816 1.754-4.067-1.87zm4.268-6.942l3.79 1.755-4.242 1.95-3.808-1.751 4.26-1.954zM17.46 8.99l4.052 1.876-4.22 1.94-4.067-1.869L17.46 8.99zm20.904-.549L34.54 10.2l-4.182-1.916 3.83-1.76 4.176 1.918zm-5.44 2.5l-4.035 1.856-4.16-1.927 4.014-1.845 4.181 1.917zm1.374 4.36l-3.802-1.76 4.044-1.859 3.822 1.751-4.064 1.869zm-11.177-5.175L19.07 8.25l3.986-1.832 4.072 1.867-4.006 1.841zm-4.217 3.422l4.215-1.938 4.16 1.927-4.2 1.93-4.175-1.92zm21.073-.857l-3.822-1.751 3.822-1.757 3.816 1.754-3.816 1.754zm-11.469-8.78l4.067 1.87-3.833 1.761-4.072-1.866 3.838-1.765zM17.463 7.506l-3.788-1.754 3.962-1.817 3.803 1.743-3.977 1.828zM6.189 9.186l3.81 1.751-3.816 1.754-3.814-1.753 3.82-1.753zm16.892 11.272l-3.816-1.754 3.816-1.754 3.815 1.754-3.815 1.754z" fill="#fff"/></g><defs><clipPath id="clip0_4_2"><path fill="#fff" d="M0 0h46v46H0z"/></clipPath></defs></svg>
